packages/dnb-ui-lib/assets/icons/file_add_medium.svg

<svg width="24" height="24" viewBox="0 0 24 24" fill="none" xmlns="http://www.w3.org/2000/svg">
<path d="M17.25 14.25V20.25M14.25 17.25H20.25M8.25 20.25H2.25C1.42157 20.25 0.75 19.5784 0.75 18.75V2.25C0.75 1.42157 1.42157 0.75 2.25 0.75H12.879C13.2765 0.750085 13.6578 0.907982 13.939 1.189L16.811 4.061C17.092 4.3422 17.2499 4.72345 17.25 5.121V8.25M17.25 23.25C20.5637 23.25 23.25 20.5637 23.25 17.25C23.25 13.9363 20.5637 11.25 17.25 11.25C13.9363 11.25 11.25 13.9363 11.25 17.25C11.25 20.5637 13.9363 23.25 17.25 23.25Z" stroke="black" stroke-width="1.5" stroke-linecap="round" stroke-linejoin="round"/>
</svg>

<svg width="24" height="24" viewBox="0 0 24 24" fill="none" xmlns="http://www.w3.org/2000/svg"><path d="M17.25 14.25v6m-3-3h6m-12 3h-6a1.5 1.5 0 01-1.5-1.5V2.25a1.5 1.5 0 011.5-1.5h10.629a1.5 1.5 0 011.06.439l2.872 2.872a1.5 1.5 0 01.439 1.06V8.25m0 15a6 6 0 100-12 6 6 0 000 12z" stroke="#000" stroke-width="1.5" stroke-linecap="round" stroke-linejoin="round"/></svg>
